pic/icon-set.svg

<svg xmlns="http://www.w3.org/2000/svg" width="700" height="140" viewBox="0 0 700 140">
  <g fill="none" fill-rule="evenodd" transform="translate(40 40)">
    <rect width="60" height="60" fill="#000" rx="10"/>
    <path fill="#FFF" d="M22,16 L48,16 C49.1045695,16 50,16.8954305 50,18 C50,19.1045695 49.1045695,20 48,20 L22,20 C20.8954305,20 20,19.1045695 20,18 C20,16.8954305 20.8954305,16 22,16 Z M12,16 L14,16 C15.1045695,16 16,16.8954305 16,18 C16,19.1045695 15.1045695,20 14,20 L12,20 C10.8954305,20 10,19.1045695 10,18 C10,16.8954305 10.8954305,16 12,16 Z M12,28 L14,28 C15.1045695,28 16,28.8954305 16,30 C16,31.1045695 15.1045695,32 14,32 L12,32 C10.8954305,32 10,31.1045695 10,30 C10,28.8954305 10.8954305,28 12,28 Z M12,40 L14,40 C15.1045695,40 16,40.8954305 16,42 C16,43.1045695 15.1045695,44 14,44 L12,44 C10.8954305,44 10,43.1045695 10,42 C10,40.8954305 10.8954305,40 12,40 Z M22,28 L48,28 C49.1045695,28 50,28.8954305 50,30 C50,31.1045695 49.1045695,32 48,32 L22,32 C20.8954305,32 20,31.1045695 20,30 C20,28.8954305 20.8954305,28 22,28 Z M22,40 L48,40 C49.1045695,40 50,40.8954305 50,42 C50,43.1045695 49.1045695,44 48,44 L22,44 C20.8954305,44 20,43.1045695 20,42 C20,40.8954305 20.8954305,40 22,40 Z"/>
    <g transform="translate(80)">
      <rect width="60" height="60" fill="#000" rx="10"/>
      <path fill="#FFF" d="M46,16 C48.209139,16 50,17.790861 50,20 L50,42 C50,44.209139 48.209139,46 46,46 L18,46 C15.8578046,46 14.1089211,44.3160315 14.0048953,42.1996403 L14,42 L41,42 C43.7614237,42 46,39.7614237 46,37 L46,16 Z M40,12 C42.209139,12 44,13.790861 44,16 L44,36 C44,38.209139 42.209139,40 40,40 L14,40 C11.790861,40 10,38.209139 10,36 L10,16 C10,13.790861 11.790861,12 14,12 L40,12 Z M21.4785741,22.9385994 C20.494002,22.4379083 19.2899583,22.8301714 18.7892673,23.8147435 L18.7892673,23.8147435 L14.0645128,33.1056257 C13.9216854,33.3864851 13.8472383,33.697117 13.8472383,34.012207 C13.8472383,35.1167765 14.7426688,36.012207 15.8472383,36.012207 L15.8472383,36.012207 L38.4240842,36.012207 C38.8785428,36.012207 39.3194507,35.8574309 39.6741926,35.5733697 C40.5363989,34.8829539 40.6756627,33.6243049 39.9852469,32.7620986 L39.9852469,32.7620986 L35.9291073,27.6967029 C35.289867,26.8984057 34.1513661,26.7109669 33.2899438,27.2622002 L33.2899438,27.2622002 L28.5909062,30.269165 C28.5717891,30.2813982 28.5524651,30.2933052 28.5329427,30.3048807 C27.5828325,30.8682317 26.3559297,30.5547014 25.7925787,29.6045912 L25.7925787,29.6045912 L22.2923195,23.7012876 C22.0988773,23.375041 21.8166542,23.1105255 21.4785741,22.9385994 Z M32,16 C29.790861,16 28,17.790861 28,20 C28,22.209139 29.790861,24 32,24 C34.209139,24 36,22.209139 36,20 C36,17.790861 34.209139,16 32,16 Z"/>
    </g>
    <g transform="translate(320)">
      <rect width="60" height="60" fill="#000" rx="10"/>
      <path fill="#FFF" fill-rule="nonzero" d="M31.6666667,11.6666667 L31.6666667,15 C31.6666667,15.9204746 30.9204746,16.6666667 30,16.6666667 C29.0795254,16.6666667 28.3333333,15.9204746 28.3333333,15 L28.3333333,11.6666667 C28.3333333,10.7461921 29.0795254,10 30,10 C30.9204746,10 31.6666667,10.7461921 31.6666667,11.6666667 L31.6666667,11.6666667 Z M30,43.3333333 C29.0795254,43.3333333 28.3333333,44.0795254 28.3333333,45 L28.3333333,48.3333333 C28.3333333,49.2538079 29.0795254,50 30,50 C30.9204746,50 31.6666667,49.2538079 31.6666667,48.3333333 L31.6666667,45 C31.6666667,44.0795254 30.9204746,43.3333333 30,43.3333333 Z M15.8579167,15.8579167 C15.5453375,16.1704798 15.369731,16.594416 15.369731,17.0364583 C15.369731,17.4785007 15.5453375,17.9024369 15.8579167,18.215 L18.215,20.5720833 C18.8658906,21.2229739 19.9211927,21.2229739 20.5720833,20.5720833 C21.2229739,19.9211927 21.2229739,18.8658906 20.5720833,18.215 L18.215,15.8579167 C17.9024369,15.5453375 17.4785007,15.369731 17.0364583,15.369731 C16.594416,15.369731 16.1704798,15.5453375 15.8579167,15.8579167 L15.8579167,15.8579167 Z M39.4279167,39.4279167 C38.7772801,40.0787498 38.7772801,41.1337502 39.4279167,41.7845833 L39.4279167,41.785 L41.785,44.1420833 C42.2060524,44.5631357 42.8197496,44.7275754 43.3949178,44.5734595 C43.9700861,44.4193436 44.4193436,43.9700861 44.5734595,43.3949178 C44.7275754,42.8197496 44.5631357,42.2060524 44.1420833,41.785 L41.785,39.4279167 C41.4724911,39.1152353 41.0485346,38.9395583 40.6064583,38.9395583 C40.1643821,38.9395583 39.7404256,39.1152353 39.4279167,39.4279167 L39.4279167,39.4279167 Z M10,30 C10,30.9204746 10.7461921,31.6666667 11.6666667,31.6666667 L15,31.6666667 C15.9204746,31.6666667 16.6666667,30.9204746 16.6666667,30 C16.6666667,29.0795254 15.9204746,28.3333333 15,28.3333333 L11.6666667,28.3333333 C10.7461921,28.3333333 10,29.0795254 10,30 Z M43.3333333,30 C43.3333333,30.9204746 44.0795254,31.6666667 45,31.6666667 L48.3333333,31.6666667 C49.2538079,31.6666667 50,30.9204746 50,30 C50,29.0795254 49.2538079,28.3333333 48.3333333,28.3333333 L45,28.3333333 C44.0795254,28.3333333 43.3333333,29.0795254 43.3333333,30 L43.3333333,30 Z M15.8579167,44.1420833 C16.1704798,44.4546625 16.594416,44.630269 17.0364583,44.630269 C17.4785007,44.630269 17.9024369,44.4546625 18.215,44.1420833 L20.5716667,41.785 C21.2101862,41.1321413 21.2044302,40.0870253 20.5587583,39.4412394 C19.9130865,38.7954534 18.8679716,38.7895126 18.215,39.4279167 L15.8579167,41.785 C15.5453375,42.0975631 15.369731,42.5214993 15.369731,42.9635417 C15.369731,43.405584 15.5453375,43.8295202 15.8579167,44.1420833 Z M39.4279167,20.5720833 C40.0787498,21.2227199 41.1337502,21.2227199 41.7845833,20.5720833 L41.785,20.5720833 L44.1420833,18.215 C44.7929739,17.5641094 44.7929739,16.5088073 44.1420833,15.8579167 C43.4911927,15.2070261 42.4358906,15.2070261 41.785,15.8579167 L39.4279167,18.215 C39.1152353,18.5275089 38.9395583,18.9514654 38.9395583,19.3935417 C38.9395583,19.8356179 39.1152353,20.2595744 39.4279167,20.5720833 L39.4279167,20.5720833 Z M40,30 C40,35.5229167 35.5229167,40 30,40 C24.4770833,40 20,35.5229167 20,30 C20,24.4770833 24.4770833,20 30,20 C35.5229167,20 40,24.4770833 40,30 Z"/>
    </g>
    <g transform="translate(400)">
      <rect width="60" height="60" fill="#000" rx="10"/>
      <path fill="#FFF" fill-rule="nonzero" d="M34.6755,12 C42.3525,14.2140692 48,21.2106628 48,29.60005 C48,39.7602425 39.765,48 29.604,48 C21.214875,48 14.214,42.3489484 12,34.6750836 C14.4525,36.0858777 17.256,36.9566549 20.287875,36.9566549 C29.499375,36.9566549 36.960375,29.4897966 36.960375,20.2836339 C36.960375,17.2516641 36.09075,14.4469515 34.6755,12 Z M19.4852814,22.4852814 L20.8994949,26.0710678 L24.4852814,27.4852814 L20.8994949,28.8994949 L19.4852814,32.4852814 L18.0710678,28.8994949 L14.4852814,27.4852814 L18.0710678,26.0710678 L19.4852814,22.4852814 Z M27.6568542,15.6568542 L28.7882251,18.5254834 L31.6568542,19.6568542 L28.7882251,20.7882251 L27.6568542,23.6568542 L26.5254834,20.7882251 L23.6568542,19.6568542 L26.5254834,18.5254834 L27.6568542,15.6568542 Z M18.6568542,13.6568542 L19.5053824,15.8083261 L21.6568542,16.6568542 L19.5053824,17.5053824 L18.6568542,19.6568542 L17.8083261,17.5053824 L15.6568542,16.6568542 L17.8083261,15.8083261 L18.6568542,13.6568542 Z"/>
    </g>
    <g transform="translate(560)">
      <rect width="60" height="60" fill="#000" rx="10"/>
      <path fill="#FFF" fill-rule="nonzero" d="M30,8 C31.1045695,8 32,8.8954305 32,10 L32.0008554,12.2155886 C40.3208668,13.1223184 46.9377443,19.6988835 47.906357,28.0001528 L50,28 C51.1045695,28 52,28.8954305 52,30 C52,31.1045695 51.1045695,32 50,32 L47.9303642,32.0002271 C47.0528076,40.4037393 40.3932878,47.0873319 32.0008554,48.0019543 L32,50 C32,51.1045695 31.1045695,52 30,52 C28.8954305,52 28,51.1045695 28,50 L28.0000662,47.9957417 C19.634113,47.0574779 13.002343,40.3849764 12.1267457,32.0002271 L10,32 C8.8954305,32 8,31.1045695 8,30 C8,28.8954305 8.8954305,28 10,28 L12.1507529,28.0001528 C13.1171841,19.7175794 19.7064671,13.1519503 28.0000662,12.2218012 L28,10 C28,8.8954305 28.8954305,8 30,8 Z M32.000753,14.2291168 L32,16 C32,17.1045695 31.1045695,18 30,18 C28.8954305,18 28,17.1045695 28,16 L28.0003059,14.236107 C20.8122884,15.1454218 15.1108784,20.823616 14.1662116,28.0005541 L16,28 C17.1045695,28 18,28.8954305 18,30 C18,31.1045695 17.1045695,32 16,32 L14.1392499,32.0007929 C14.9967667,39.2796524 20.7402615,45.0630094 28.0003059,45.9814358 L28,44 C28,42.8954305 28.8954305,42 30,42 C31.1045695,42 32,42.8954305 32,44 L32.000753,45.9884261 C39.2872703,45.0927504 45.0581376,39.2983744 45.91786,32.0007929 L44,32 C42.8954305,32 42,31.1045695 42,30 C42,28.8954305 42.8954305,28 44,28 L45.8908983,28.0005541 C44.9437774,20.8049711 39.2151662,15.1159293 32.000753,14.2291168 Z M26.028555,23.1805682 C28.5037636,21.7515058 31.5533464,21.7515058 34.028555,23.1805682 C36.5037636,24.6096306 38.028555,27.2506468 38.028555,30.1087714 C38.028555,34.5270495 34.446833,38.1087714 30.028555,38.1087714 C25.610277,38.1087714 22.028555,34.5270495 22.028555,30.1087714 C22.028555,27.2506468 23.5533463,24.6096306 26.028555,23.1805682 Z"/>
    </g>
    <g transform="translate(480)">
      <rect width="60" height="60" fill="#000" rx="10"/>
      <path fill="#FFF" fill-rule="nonzero" d="M16.039548,34 C16.7853107,34 17.3954802,34.6101695 17.3954802,35.3559322 L17.3954802,35.3559322 L17.3954802,45.4281119 L19.7457627,43.0778294 C20.2655367,42.5354566 21.1242938,42.5354566 21.5988701,43.0778294 C22.1186441,43.6202023 22.1186441,44.4789594 21.5988701,44.9987334 L21.5988701,44.9987334 L17.0112994,49.586304 C16.7627119,49.8574905 16.4011299,49.9930837 16.0621469,49.9930837 L16.0621469,49.9930837 L15.9265537,49.9930837 C15.5875706,49.9930837 15.2485876,49.8574905 14.9774011,49.586304 L14.9774011,49.586304 L10.3898305,44.9987334 C9.8700565,44.4563605 9.8700565,43.5976035 10.3898305,43.0778294 C10.9322034,42.5580554 11.7909605,42.5580554 12.3107345,43.0778294 L12.3107345,43.0778294 L14.6836158,45.4507108 L14.6836158,35.3559322 C14.6836158,34.6101695 15.2937853,34 16.039548,34 Z M48,42 C49.1045695,42 50,42.8954305 50,44 C50,45.1045695 49.1045695,46 48,46 L26,46 C24.8954305,46 24,45.1045695 24,44 C24,42.8954305 24.8954305,42 26,42 L48,42 Z M40,35 C41.1045695,35 42,35.8954305 42,37 C42,38.1045695 41.1045695,39 40,39 L26,39 C24.8954305,39 24,38.1045695 24,37 C24,35.8954305 24.8954305,35 26,35 L40,35 Z M48,28 C49.1045695,28 50,28.8954305 50,30 C50,31.1045695 49.1045695,32 48,32 L26,32 C24.8954305,32 24,31.1045695 24,30 C24,28.8954305 24.8954305,28 26,28 L48,28 Z M16.0621469,10 C16.4011299,10 16.7627119,10.1355932 17.0112994,10.4067797 L21.5988701,14.9943503 C22.1186441,15.5141243 22.1186441,16.3728814 21.5988701,16.9152542 C21.1242938,17.4576271 20.2655367,17.4576271 19.7457627,16.9152542 L17.3954802,14.5649718 L17.3954802,24.6371515 C17.3954802,25.3829142 16.7853107,25.9930837 16.039548,25.9930837 C15.2937853,25.9930837 14.6836158,25.3829142 14.6836158,24.6371515 L14.6836158,14.5423729 L12.3107345,16.9152542 C11.7909605,17.4350282 10.9322034,17.4350282 10.3898305,16.9152542 C9.8700565,16.3954802 9.8700565,15.5367232 10.3898305,14.9943503 L14.9774011,10.4067797 C15.2485876,10.1355932 15.5875706,10 15.9265537,10 L16.0621469,10 Z M40,21 C41.1045695,21 42,21.8954305 42,23 C42,24.1045695 41.1045695,25 40,25 L26,25 C24.8954305,25 24,24.1045695 24,23 C24,21.8954305 24.8954305,21 26,21 L40,21 Z M48,14 C49.1045695,14 50,14.8954305 50,16 C50,17.1045695 49.1045695,18 48,18 L26,18 C24.8954305,18 24,17.1045695 24,16 C24,14.8954305 24.8954305,14 26,14 L48,14 Z"/>
    </g>
    <g transform="translate(160)">
      <rect width="60" height="60" fill="#000" rx="10"/>
      <path fill="#FFF" fill-rule="nonzero" d="M40,10 C42.209139,10 44,11.790861 44,14 L44,22 L46,22 C48.209139,22 50,23.790861 50,26 L50,38 C50,40.209139 48.209139,42 46,42 L44,42 L44,44 C44,46.209139 42.209139,48 40,48 L20,48 C17.790861,48 16,46.209139 16,44 L16,42 L14,42 C11.790861,42 10,40.209139 10,38 L10,26 C10,23.790861 11.790861,22 14,22 L16,22 L16,14 C16,11.790861 17.790861,10 20,10 L40,10 Z M42,36 L18,36 L18,44 C18,45.1045695 18.8954305,46 20,46 L20,46 L40,46 C41.1045695,46 42,45.1045695 42,44 L42,44 L42,36 Z M38,40 L38,42 L22,42 L22,40 L38,40 Z M45,26 L43,26 C42.4477153,26 42,26.4477153 42,27 C42,27.5522847 42.4477153,28 43,28 L43,28 L45,28 C45.5522847,28 46,27.5522847 46,27 C46,26.4477153 45.5522847,26 45,26 L45,26 Z M38.2551313,26 C37.7028465,26 37.2551313,26.4477153 37.2551313,27 C37.2551313,27.5522847 37.7028465,28 38.2551313,28 C38.807416,28 39.2551313,27.5522847 39.2551313,27 C39.2551313,26.4477153 38.807416,26 38.2551313,26 Z M40,12 L20,12 C18.8954305,12 18,12.8954305 18,14 L18,14 L18,22 L42,22 L42,14 C42,12.9456382 41.1841222,12.0818349 40.1492623,12.0054857 L40,12 Z"/>
    </g>
    <g transform="translate(240)">
      <rect width="60" height="60" fill="#000" rx="10"/>
      <path fill="#FFF" fill-rule="nonzero" d="M37.1525205,12 L49.2481179,17.4589987 C49.6846877,17.6560319 49.9202415,18.1349571 49.8098109,18.6010261 L49.8098109,18.6010261 L47.8510811,26.8677817 C47.8478515,26.881412 47.8444789,26.895008 47.8409636,26.9085674 C47.563772,27.9777907 46.4722869,28.6198593 45.4030636,28.3426676 L45.4030636,28.3426676 L43.2181091,27.7762273 L44.0008189,45.9060263 C44.0020596,45.9347645 44.0026802,45.9635261 44.0026802,45.9922911 C44.0026802,47.0968606 43.1072497,47.9922911 42.0026802,47.9922911 L42.0026802,47.9922911 L18.0441678,47.9922911 L18.0441678,47.9922911 L17.9630566,47.9906456 C16.8593958,47.9458491 16.0010167,47.0148406 16.0458132,45.9111798 L16.0458132,45.9111798 L16.7818909,27.7762813 L14.5969364,28.3427216 L14.5969364,28.3427216 L14.5561507,28.3528391 C13.4813396,28.6075054 12.4035852,27.9426468 12.1489189,26.8678357 L12.1489189,26.8678357 L10.1901882,18.601076 C10.0797579,18.1350088 10.3153095,17.6560853 10.7518765,17.4590507 L10.7518765,17.4590507 L22.8474256,12 C23.682404,14.3555921 26.7006805,15.8404027 30.0547672,15.8404027 C33.408315,15.8404027 36.3168954,14.3555921 37.1525205,12 L37.1525205,12 Z M38.6725851,42 L20.6725851,42 C20.1203003,42 19.6725851,42.4477153 19.6725851,43 C19.6725851,43.5522847 20.1203003,44 20.6725851,44 L20.6725851,44 L38.6725851,44 C39.2248698,44 39.6725851,43.5522847 39.6725851,43 C39.6725851,42.4477153 39.2248698,42 38.6725851,42 L38.6725851,42 Z M38.6725851,38 L20.6725851,38 C20.1203003,38 19.6725851,38.4477153 19.6725851,39 C19.6725851,39.5522847 20.1203003,40 20.6725851,40 L20.6725851,40 L38.6725851,40 C39.2248698,40 39.6725851,39.5522847 39.6725851,39 C39.6725851,38.4477153 39.2248698,38 38.6725851,38 L38.6725851,38 Z M30.3385603,20 L28.987128,20 C28.2136233,20 27.5094659,20.4460295 27.1789297,21.1453545 L27.1789297,21.1453545 L21.0264652,34.1623023 C20.9451606,34.3343208 20.9029916,34.5222211 20.9029916,34.7124862 C20.9029916,35.4235604 21.4794311,36 22.1905054,36 L22.1905054,36 L22.9481742,36 C23.7258581,36 24.4330292,35.5491927 24.7612819,34.8441804 L24.7612819,34.8441804 L25.970766,32.2464833 L33.3764356,32.2464833 L34.5072439,34.8077748 C34.8271887,35.5324527 35.544698,36 36.3368613,36 L36.3368613,36 L37.1180257,36 C37.3135741,36 37.5066706,35.9564717 37.6833064,35.872573 C38.3405868,35.5603772 38.6203331,34.7744613 38.3081372,34.1171809 L38.3081372,34.1171809 L32.1451284,21.141914 C31.8138518,20.4444621 31.1106894,20 30.3385603,20 L30.3385603,20 Z M29.6725851,23.6260206 L32.2878142,29.5598756 L27.1091427,29.5598756 L29.6725851,23.6260206 Z"/>
    </g>
  </g>
</svg>

<svg xmlns="http://www.w3.org/2000/svg" width="700" height="140" viewBox="0 0 700 140"><g fill="none" fill-rule="evenodd" transform="translate(40 40)"><rect width="60" height="60" fill="#000" rx="10"/><path fill="#FFF" d="M22 16h26a2 2 0 1 1 0 4H22a2 2 0 1 1 0-4Zm-10 0h2a2 2 0 1 1 0 4h-2a2 2 0 1 1 0-4Zm0 12h2a2 2 0 1 1 0 4h-2a2 2 0 1 1 0-4Zm0 12h2a2 2 0 1 1 0 4h-2a2 2 0 1 1 0-4Zm10-12h26a2 2 0 1 1 0 4H22a2 2 0 1 1 0-4Zm0 12h26a2 2 0 1 1 0 4H22a2 2 0 1 1 0-4Z"/><g transform="translate(80)"><rect width="60" height="60" fill="#000" rx="10"/><path fill="#FFF" d="M46 16a4 4 0 0 1 4 4v22a4 4 0 0 1-4 4H18a4 4 0 0 1-3.995-3.8L14 42h27a5 5 0 0 0 5-5V16Zm-6-4a4 4 0 0 1 4 4v20a4 4 0 0 1-4 4H14a4 4 0 0 1-4-4V16a4 4 0 0 1 4-4h26ZM21.479 22.939a2 2 0 0 0-2.69.876l-4.724 9.29a2 2 0 0 0 1.782 2.907h22.577a2 2 0 0 0 1.561-3.25l-4.056-5.065a2 2 0 0 0-2.64-.435l-4.698 3.007a2 2 0 0 1-2.798-.664l-3.5-5.904a2 2 0 0 0-.814-.762ZM32 16a4 4 0 1 0 0 8 4 4 0 0 0 0-8Z"/></g><g transform="translate(320)"><rect width="60" height="60" fill="#000" rx="10"/><path fill="#FFF" fill-rule="nonzero" d="M31.667 11.667V15a1.667 1.667 0 0 1-3.334 0v-3.333a1.667 1.667 0 0 1 3.334 0ZM30 43.333c-.92 0-1.667.747-1.667 1.667v3.333a1.667 1.667 0 0 0 3.334 0V45c0-.92-.747-1.667-1.667-1.667ZM15.858 15.858a1.667 1.667 0 0 0 0 2.357l2.357 2.357a1.667 1.667 0 1 0 2.357-2.357l-2.357-2.357a1.667 1.667 0 0 0-2.357 0Zm23.57 23.57c-.65.65-.65 1.706 0 2.357l2.357 2.357a1.667 1.667 0 1 0 2.357-2.357l-2.357-2.357a1.666 1.666 0 0 0-2.357 0ZM10 30c0 .92.746 1.667 1.667 1.667H15a1.667 1.667 0 0 0 0-3.334h-3.333c-.92 0-1.667.747-1.667 1.667Zm33.333 0c0 .92.747 1.667 1.667 1.667h3.333a1.667 1.667 0 0 0 0-3.334H45c-.92 0-1.667.747-1.667 1.667ZM15.858 44.142a1.667 1.667 0 0 0 2.357 0l2.357-2.357a1.667 1.667 0 0 0-2.357-2.357l-2.357 2.357a1.667 1.667 0 0 0 0 2.357Zm23.57-23.57c.65.65 1.706.65 2.357 0l2.357-2.357a1.667 1.667 0 1 0-2.357-2.357l-2.357 2.357a1.666 1.666 0 0 0 0 2.357ZM40 30c0 5.523-4.477 10-10 10s-10-4.477-10-10 4.477-10 10-10 10 4.477 10 10Z"/></g><g transform="translate(400)"><rect width="60" height="60" fill="#000" rx="10"/><path fill="#FFF" fill-rule="nonzero" d="M34.675 12C42.353 14.214 48 21.21 48 29.6 48 39.76 39.765 48 29.604 48c-8.39 0-15.39-5.651-17.604-13.325 2.453 1.41 5.256 2.282 8.288 2.282 9.211 0 16.672-7.467 16.672-16.673 0-3.032-.87-5.837-2.285-8.284Zm-15.19 10.485 1.414 3.586 3.586 1.414L20.9 28.9l-1.414 3.586-1.414-3.586-3.586-1.414 3.586-1.414 1.414-3.586Zm8.172-6.828 1.131 2.868 2.869 1.132-2.869 1.131-1.131 2.869-1.132-2.869-2.868-1.131 2.868-1.132 1.132-2.868Zm-9-2 .848 2.151 2.152.849-2.152.848-.848 2.152-.849-2.152-2.151-.848 2.151-.849.849-2.151Z"/></g><g transform="translate(560)"><rect width="60" height="60" fill="#000" rx="10"/><path fill="#FFF" fill-rule="nonzero" d="M30 8a2 2 0 0 1 2 2v2.216c8.32.906 14.938 7.483 15.906 15.784H50a2 2 0 1 1 0 4h-2.07c-.877 8.404-7.537 15.087-15.93 16.002V50a2 2 0 1 1-4 0v-2.004C19.634 47.057 13.002 40.385 12.127 32H10a2 2 0 1 1 0-4h2.15c.967-8.282 7.556-14.848 15.85-15.778V10a2 2 0 0 1 2-2Zm2 6.23V16a2 2 0 1 1-4 0v-1.764c-7.188.91-12.89 6.588-13.834 13.765L16 28a2 2 0 1 1 0 4h-1.86c.857 7.28 6.6 13.063 13.86 13.981V44a2 2 0 1 1 4 0v1.988c7.287-.895 13.058-6.69 13.918-13.987L44 32a2 2 0 1 1 0-4h1.89c-.946-7.195-6.675-12.884-13.89-13.77Zm-5.971 8.95a8 8 0 1 1 8 13.857 8 8 0 0 1-8-13.856Z"/></g><g transform="translate(480)"><rect width="60" height="60" fill="#000" rx="10"/><path fill="#FFF" fill-rule="nonzero" d="M16.04 34c.745 0 1.355.61 1.355 1.356v10.072l2.35-2.35c.52-.543 1.38-.543 1.854 0 .52.542.52 1.401 0 1.92l-4.588 4.588a1.3 1.3 0 0 1-.949.407h-.135c-.34 0-.678-.136-.95-.407L10.39 45c-.52-.543-.52-1.401 0-1.921.542-.52 1.401-.52 1.92 0l2.374 2.373V35.356c0-.746.61-1.356 1.356-1.356ZM48 42a2 2 0 1 1 0 4H26a2 2 0 1 1 0-4h22Zm-8-7a2 2 0 1 1 0 4H26a2 2 0 1 1 0-4h14Zm8-7a2 2 0 1 1 0 4H26a2 2 0 1 1 0-4h22ZM16.062 10c.34 0 .7.136.95.407l4.587 4.587c.52.52.52 1.379 0 1.921-.475.543-1.333.543-1.853 0l-2.35-2.35v10.072a1.36 1.36 0 0 1-1.356 1.356 1.36 1.36 0 0 1-1.356-1.356V14.542l-2.373 2.373c-.52.52-1.379.52-1.921 0-.52-.52-.52-1.378 0-1.92l4.587-4.588c.272-.271.61-.407.95-.407h.135ZM40 21a2 2 0 1 1 0 4H26a2 2 0 1 1 0-4h14Zm8-7a2 2 0 1 1 0 4H26a2 2 0 1 1 0-4h22Z"/></g><g transform="translate(160)"><rect width="60" height="60" fill="#000" rx="10"/><path fill="#FFF" fill-rule="nonzero" d="M40 10a4 4 0 0 1 4 4v8h2a4 4 0 0 1 4 4v12a4 4 0 0 1-4 4h-2v2a4 4 0 0 1-4 4H20a4 4 0 0 1-4-4v-2h-2a4 4 0 0 1-4-4V26a4 4 0 0 1 4-4h2v-8a4 4 0 0 1 4-4h20Zm2 26H18v8a2 2 0 0 0 2 2h20a2 2 0 0 0 2-2v-8Zm-4 4v2H22v-2h16Zm7-14h-2a1 1 0 0 0 0 2h2a1 1 0 0 0 0-2Zm-6.745 0a1 1 0 1 0 0 2 1 1 0 0 0 0-2ZM40 12H20a2 2 0 0 0-2 2v8h24v-8a2 2 0 0 0-1.85-1.995L40 12Z"/></g><g transform="translate(240)"><rect width="60" height="60" fill="#000" rx="10"/><path fill="#FFF" fill-rule="nonzero" d="m37.153 12 12.095 5.459a1 1 0 0 1 .562 1.142l-1.959 8.267a2 2 0 0 1-2.448 1.475l-2.185-.567.783 18.13a2 2 0 0 1-1.998 2.086H18.044l-.08-.001a2 2 0 0 1-1.918-2.08l.736-18.135-2.185.567-.04.01a2 2 0 0 1-2.408-1.485L10.19 18.6a1 1 0 0 1 .562-1.142L22.847 12c.835 2.356 3.854 3.84 7.208 3.84 3.353 0 6.262-1.484 7.098-3.84Zm1.52 30h-18a1 1 0 1 0 0 2h18a1 1 0 0 0 0-2Zm0-4h-18a1 1 0 1 0 0 2h18a1 1 0 0 0 0-2Zm-8.334-18h-1.352a2 2 0 0 0-1.808 1.145l-6.153 13.017A1.288 1.288 0 0 0 22.191 36h.757a2 2 0 0 0 1.813-1.156l1.21-2.598h7.405l1.131 2.562A2 2 0 0 0 36.337 36h.781a1.318 1.318 0 0 0 1.19-1.883l-6.163-12.975A2 2 0 0 0 30.34 20Zm-.666 3.626 2.615 5.934h-5.179l2.564-5.934Z"/></g></g></svg>
